ligands/monodentate/triphenylphosphine.svg

<svg height="256" viewBox="0 0 256 256" width="256" xmlns="http://www.w3.org/2000/svg"><path d="m0 0h256v256h-256z" fill="#fff"/><ellipse cx="198.7" cy="127.7" fill="#ff7f7f" fill-rule="evenodd" rx="11.5" ry="11.5" stroke="#ff7f7f"/><g fill="none" stroke="#000" stroke-width="2"><path d="m152.2 127.8-30.2.1"/><path d="m122 127.9-19 33.3"/><path d="m115.4 127.9-15.8 27.5"/><path d="m103 161.2-38.4.1"/><path d="m64.6 161.3-19.2-33.2"/><path d="m67.9 155.5-15.9-27.4"/><path d="m45.4 128.1 19.1-33.2"/><path d="m64.5 94.9 38.3-.1"/><path d="m67.8 100.6 31.7-.1"/><path d="m160.4 140.6.1 25.5"/><path d="m160.5 166.1 33.2 19.1"/><path d="m160.5 172.8 27.5 15.7"/><path d="m193.7 185.2.2 38.3"/><path d="m193.9 223.5-33.2 19.3"/><path d="m188.1 220.2-27.4 16"/><path d="m160.7 242.8-33.2-19.1"/><path d="m127.5 223.7-.2-38.3"/><path d="m133.2 220.4-.1-31.7"/><path d="m160.4 119.6-.1-30.1"/><path d="m160.3 89.5-33.3-19.1"/><path d="m160.3 82.8-27.5-15.7"/><path d="m127 70.4-.1-38.3"/><path d="m126.9 32.1 33.2-19.3"/><path d="m132.7 35.4 27.4-16"/><path d="m160.1 12.8 33.2 19.1"/><path d="m193.3 31.9.1 38.3"/><path d="m187.6 35.2.1 31.7"/><path d="m102.8 94.8 19.2 33.1"/><path d="m127.3 185.4 33.2-19.3"/><path d="m193.4 70.2-33.1 19.3"/><path d="m168.5 127.8 22.1-.1"/><path d="m103.9 159.5-.9 1.7h-1.9" stroke-miterlimit="10"/><path d="m66.6 161.3h-2l-.9-1.7" stroke-miterlimit="10"/><path d="m46.3 129.8-.9-1.7.9-1.6" stroke-miterlimit="10"/><path d="m63.5 96.5 1-1.6h1.9" stroke-miterlimit="10"/><path d="m100.9 94.8h1.9l1 1.6" stroke-miterlimit="10"/><path d="m192.1 184.3 1.6.9v1.9" stroke-miterlimit="10"/><path d="m193.8 221.6.1 1.9-1.7 1" stroke-miterlimit="10"/><path d="m162.4 241.8-1.7 1-1.7-1" stroke-miterlimit="10"/><path d="m129.1 224.7-1.6-1-.1-1.9" stroke-miterlimit="10"/><path d="m127.4 187.3-.1-1.9 1.7-1" stroke-miterlimit="10"/><path d="m128.7 71.3-1.7-.9v-1.9" stroke-miterlimit="10"/><path d="m126.9 34v-1.9l1.7-1" stroke-miterlimit="10"/><path d="m158.4 13.8 1.7-1 1.6 1" stroke-miterlimit="10"/><path d="m191.7 30.9 1.6 1v1.9" stroke-miterlimit="10"/><path d="m193.4 68.3v1.9l-1.6 1" stroke-miterlimit="10"/></g><text x="191.8" y="139.2"/><text font-family="sans-serif" font-size="23" x="153.5" y="139.3">P</text></svg>

<?xml version='1.0' encoding='iso-8859-1'?>
<svg version='1.1' baseProfile='full'
              xmlns='http://www.w3.org/2000/svg'
                      xmlns:rdkit='http://www.rdkit.org/xml'
                      xmlns:xlink='http://www.w3.org/1999/xlink'
                  xml:space='preserve'
width='256px' height='256px' viewBox='0 0 256 256'>
<!-- END OF HEADER -->
<rect style='opacity:1.0;fill:#FFFFFF;stroke:none' width='256.0' height='256.0' x='0.0' y='0.0'> </rect>
<ellipse cx='198.7' cy='127.7' rx='11.5' ry='11.5' class='atom-0'  style='fill:#FF7F7F;fill-rule:evenodd;stroke:#FF7F7F;stroke-width:1.0px;stroke-linecap:butt;stroke-linejoin:miter;stroke-opacity:1' />
<path class='bond-0 atom-1 atom-2' d='M 152.2,127.8 L 122.0,127.9' style='fill:none;fill-rule:evenodd;stroke:#000000;stroke-width:2.0px;stroke-linecap:butt;stroke-linejoin:miter;stroke-opacity:1' />
<path class='bond-1 atom-2 atom-3' d='M 122.0,127.9 L 103.0,161.2' style='fill:none;fill-rule:evenodd;stroke:#000000;stroke-width:2.0px;stroke-linecap:butt;stroke-linejoin:miter;stroke-opacity:1' />
<path class='bond-1 atom-2 atom-3' d='M 115.4,127.9 L 99.6,155.4' style='fill:none;fill-rule:evenodd;stroke:#000000;stroke-width:2.0px;stroke-linecap:butt;stroke-linejoin:miter;stroke-opacity:1' />
<path class='bond-2 atom-3 atom-4' d='M 103.0,161.2 L 64.6,161.3' style='fill:none;fill-rule:evenodd;stroke:#000000;stroke-width:2.0px;stroke-linecap:butt;stroke-linejoin:miter;stroke-opacity:1' />
<path class='bond-3 atom-4 atom-5' d='M 64.6,161.3 L 45.4,128.1' style='fill:none;fill-rule:evenodd;stroke:#000000;stroke-width:2.0px;stroke-linecap:butt;stroke-linejoin:miter;stroke-opacity:1' />
<path class='bond-3 atom-4 atom-5' d='M 67.9,155.5 L 52.0,128.1' style='fill:none;fill-rule:evenodd;stroke:#000000;stroke-width:2.0px;stroke-linecap:butt;stroke-linejoin:miter;stroke-opacity:1' />
<path class='bond-4 atom-5 atom-6' d='M 45.4,128.1 L 64.5,94.9' style='fill:none;fill-rule:evenodd;stroke:#000000;stroke-width:2.0px;stroke-linecap:butt;stroke-linejoin:miter;stroke-opacity:1' />
<path class='bond-5 atom-6 atom-7' d='M 64.5,94.9 L 102.8,94.8' style='fill:none;fill-rule:evenodd;stroke:#000000;stroke-width:2.0px;stroke-linecap:butt;stroke-linejoin:miter;stroke-opacity:1' />
<path class='bond-5 atom-6 atom-7' d='M 67.8,100.6 L 99.5,100.5' style='fill:none;fill-rule:evenodd;stroke:#000000;stroke-width:2.0px;stroke-linecap:butt;stroke-linejoin:miter;stroke-opacity:1' />
<path class='bond-6 atom-1 atom-8' d='M 160.4,140.6 L 160.5,166.1' style='fill:none;fill-rule:evenodd;stroke:#000000;stroke-width:2.0px;stroke-linecap:butt;stroke-linejoin:miter;stroke-opacity:1' />
<path class='bond-7 atom-8 atom-9' d='M 160.5,166.1 L 193.7,185.2' style='fill:none;fill-rule:evenodd;stroke:#000000;stroke-width:2.0px;stroke-linecap:butt;stroke-linejoin:miter;stroke-opacity:1' />
<path class='bond-7 atom-8 atom-9' d='M 160.5,172.8 L 188.0,188.5' style='fill:none;fill-rule:evenodd;stroke:#000000;stroke-width:2.0px;stroke-linecap:butt;stroke-linejoin:miter;stroke-opacity:1' />
<path class='bond-8 atom-9 atom-10' d='M 193.7,185.2 L 193.9,223.5' style='fill:none;fill-rule:evenodd;stroke:#000000;stroke-width:2.0px;stroke-linecap:butt;stroke-linejoin:miter;stroke-opacity:1' />
<path class='bond-9 atom-10 atom-11' d='M 193.9,223.5 L 160.7,242.8' style='fill:none;fill-rule:evenodd;stroke:#000000;stroke-width:2.0px;stroke-linecap:butt;stroke-linejoin:miter;stroke-opacity:1' />
<path class='bond-9 atom-10 atom-11' d='M 188.1,220.2 L 160.7,236.2' style='fill:none;fill-rule:evenodd;stroke:#000000;stroke-width:2.0px;stroke-linecap:butt;stroke-linejoin:miter;stroke-opacity:1' />
<path class='bond-10 atom-11 atom-12' d='M 160.7,242.8 L 127.5,223.7' style='fill:none;fill-rule:evenodd;stroke:#000000;stroke-width:2.0px;stroke-linecap:butt;stroke-linejoin:miter;stroke-opacity:1' />
<path class='bond-11 atom-12 atom-13' d='M 127.5,223.7 L 127.3,185.4' style='fill:none;fill-rule:evenodd;stroke:#000000;stroke-width:2.0px;stroke-linecap:butt;stroke-linejoin:miter;stroke-opacity:1' />
<path class='bond-11 atom-12 atom-13' d='M 133.2,220.4 L 133.1,188.7' style='fill:none;fill-rule:evenodd;stroke:#000000;stroke-width:2.0px;stroke-linecap:butt;stroke-linejoin:miter;stroke-opacity:1' />
<path class='bond-12 atom-1 atom-14' d='M 160.4,119.6 L 160.3,89.5' style='fill:none;fill-rule:evenodd;stroke:#000000;stroke-width:2.0px;stroke-linecap:butt;stroke-linejoin:miter;stroke-opacity:1' />
<path class='bond-13 atom-14 atom-15' d='M 160.3,89.5 L 127.0,70.4' style='fill:none;fill-rule:evenodd;stroke:#000000;stroke-width:2.0px;stroke-linecap:butt;stroke-linejoin:miter;stroke-opacity:1' />
<path class='bond-13 atom-14 atom-15' d='M 160.3,82.8 L 132.8,67.1' style='fill:none;fill-rule:evenodd;stroke:#000000;stroke-width:2.0px;stroke-linecap:butt;stroke-linejoin:miter;stroke-opacity:1' />
<path class='bond-14 atom-15 atom-16' d='M 127.0,70.4 L 126.9,32.1' style='fill:none;fill-rule:evenodd;stroke:#000000;stroke-width:2.0px;stroke-linecap:butt;stroke-linejoin:miter;stroke-opacity:1' />
<path class='bond-15 atom-16 atom-17' d='M 126.9,32.1 L 160.1,12.8' style='fill:none;fill-rule:evenodd;stroke:#000000;stroke-width:2.0px;stroke-linecap:butt;stroke-linejoin:miter;stroke-opacity:1' />
<path class='bond-15 atom-16 atom-17' d='M 132.7,35.4 L 160.1,19.4' style='fill:none;fill-rule:evenodd;stroke:#000000;stroke-width:2.0px;stroke-linecap:butt;stroke-linejoin:miter;stroke-opacity:1' />
<path class='bond-16 atom-17 atom-18' d='M 160.1,12.8 L 193.3,31.9' style='fill:none;fill-rule:evenodd;stroke:#000000;stroke-width:2.0px;stroke-linecap:butt;stroke-linejoin:miter;stroke-opacity:1' />
<path class='bond-17 atom-18 atom-19' d='M 193.3,31.9 L 193.4,70.2' style='fill:none;fill-rule:evenodd;stroke:#000000;stroke-width:2.0px;stroke-linecap:butt;stroke-linejoin:miter;stroke-opacity:1' />
<path class='bond-17 atom-18 atom-19' d='M 187.6,35.2 L 187.7,66.9' style='fill:none;fill-rule:evenodd;stroke:#000000;stroke-width:2.0px;stroke-linecap:butt;stroke-linejoin:miter;stroke-opacity:1' />
<path class='bond-18 atom-7 atom-2' d='M 102.8,94.8 L 122.0,127.9' style='fill:none;fill-rule:evenodd;stroke:#000000;stroke-width:2.0px;stroke-linecap:butt;stroke-linejoin:miter;stroke-opacity:1' />
<path class='bond-19 atom-13 atom-8' d='M 127.3,185.4 L 160.5,166.1' style='fill:none;fill-rule:evenodd;stroke:#000000;stroke-width:2.0px;stroke-linecap:butt;stroke-linejoin:miter;stroke-opacity:1' />
<path class='bond-20 atom-19 atom-14' d='M 193.4,70.2 L 160.3,89.5' style='fill:none;fill-rule:evenodd;stroke:#000000;stroke-width:2.0px;stroke-linecap:butt;stroke-linejoin:miter;stroke-opacity:1' />
<path class='bond-21 atom-1 atom-0' d='M 168.5,127.8 L 190.6,127.7' style='fill:none;fill-rule:evenodd;stroke:#000000;stroke-width:2.0px;stroke-linecap:butt;stroke-linejoin:miter;stroke-opacity:1' />
<path d='M 103.9,159.5 L 103.0,161.2 L 101.1,161.2' style='fill:none;stroke:#000000;stroke-width:2.0px;stroke-linecap:butt;stroke-linejoin:miter;stroke-miterlimit:10;stroke-opacity:1;' />
<path d='M 66.6,161.3 L 64.6,161.3 L 63.7,159.6' style='fill:none;stroke:#000000;stroke-width:2.0px;stroke-linecap:butt;stroke-linejoin:miter;stroke-miterlimit:10;stroke-opacity:1;' />
<path d='M 46.3,129.8 L 45.4,128.1 L 46.3,126.5' style='fill:none;stroke:#000000;stroke-width:2.0px;stroke-linecap:butt;stroke-linejoin:miter;stroke-miterlimit:10;stroke-opacity:1;' />
<path d='M 63.5,96.5 L 64.5,94.9 L 66.4,94.9' style='fill:none;stroke:#000000;stroke-width:2.0px;stroke-linecap:butt;stroke-linejoin:miter;stroke-miterlimit:10;stroke-opacity:1;' />
<path d='M 100.9,94.8 L 102.8,94.8 L 103.8,96.4' style='fill:none;stroke:#000000;stroke-width:2.0px;stroke-linecap:butt;stroke-linejoin:miter;stroke-miterlimit:10;stroke-opacity:1;' />
<path d='M 192.1,184.3 L 193.7,185.2 L 193.7,187.1' style='fill:none;stroke:#000000;stroke-width:2.0px;stroke-linecap:butt;stroke-linejoin:miter;stroke-miterlimit:10;stroke-opacity:1;' />
<path d='M 193.8,221.6 L 193.9,223.5 L 192.2,224.5' style='fill:none;stroke:#000000;stroke-width:2.0px;stroke-linecap:butt;stroke-linejoin:miter;stroke-miterlimit:10;stroke-opacity:1;' />
<path d='M 162.4,241.8 L 160.7,242.8 L 159.0,241.8' style='fill:none;stroke:#000000;stroke-width:2.0px;stroke-linecap:butt;stroke-linejoin:miter;stroke-miterlimit:10;stroke-opacity:1;' />
<path d='M 129.1,224.7 L 127.5,223.7 L 127.4,221.8' style='fill:none;stroke:#000000;stroke-width:2.0px;stroke-linecap:butt;stroke-linejoin:miter;stroke-miterlimit:10;stroke-opacity:1;' />
<path d='M 127.4,187.3 L 127.3,185.4 L 129.0,184.4' style='fill:none;stroke:#000000;stroke-width:2.0px;stroke-linecap:butt;stroke-linejoin:miter;stroke-miterlimit:10;stroke-opacity:1;' />
<path d='M 128.7,71.3 L 127.0,70.4 L 127.0,68.5' style='fill:none;stroke:#000000;stroke-width:2.0px;stroke-linecap:butt;stroke-linejoin:miter;stroke-miterlimit:10;stroke-opacity:1;' />
<path d='M 126.9,34.0 L 126.9,32.1 L 128.6,31.1' style='fill:none;stroke:#000000;stroke-width:2.0px;stroke-linecap:butt;stroke-linejoin:miter;stroke-miterlimit:10;stroke-opacity:1;' />
<path d='M 158.4,13.8 L 160.1,12.8 L 161.7,13.8' style='fill:none;stroke:#000000;stroke-width:2.0px;stroke-linecap:butt;stroke-linejoin:miter;stroke-miterlimit:10;stroke-opacity:1;' />
<path d='M 191.7,30.9 L 193.3,31.9 L 193.3,33.8' style='fill:none;stroke:#000000;stroke-width:2.0px;stroke-linecap:butt;stroke-linejoin:miter;stroke-miterlimit:10;stroke-opacity:1;' />
<path d='M 193.4,68.3 L 193.4,70.2 L 191.8,71.2' style='fill:none;stroke:#000000;stroke-width:2.0px;stroke-linecap:butt;stroke-linejoin:miter;stroke-miterlimit:10;stroke-opacity:1;' />
<text x='191.8' y='139.2' class='atom-0' style='font-size:23px;font-style:normal;font-weight:normal;fill-opacity:1;stroke:none;font-family:sans-serif;text-anchor:start;fill:#000000' ></text>
<text x='153.5' y='139.3' class='atom-1' style='font-size:23px;font-style:normal;font-weight:normal;fill-opacity:1;stroke:none;font-family:sans-serif;text-anchor:start;fill:#000000' >P</text>
</svg>
